X:1
T:Title
%%score { ( 1 3 ) | 2 }
L:1/8
M:3/4
K:Db
V:1 treble nm="Grand Piano"
V:3 treble 
V:2 bass 
V:1
 z2 z2[Q:1/4=100] [DF]>[EG] | [FA]3 [Fd] [DF]>[EG] | [FA]4 [Ad]>[Ac] | B3 =A c>B | %4
 [FA]4 [DF]>[EG] | [FA]3 [Fd] [Fd]>[Fd] | d4 c>d | e6 | A4 z2 | [FA]3 [FA] [GB]>[FA] | %10
 [Fd]4 [Ad]>[Ac] | B3 e d>B | [FA]4 [Fd]>[Ge] | [Af]3 [Ge] [Fd]>[GB] | [FA]4 [DF]>[Fd] | c6 | %16
[M:2/4] [Fd]4 |[M:1/4] [Fd]>[DFd] |[M:3/4] [CGe]4 [CE]>[DF] | [EG]4 [Gc]>[CGB] | [DFA]6 | %21
 [Fd]4 [Ad]>[Ac] | B4 d>d | [=Gd]4 [Ge]>[Gf] | e6 | G4 z2 | [FA]3 [FA] [GB]>[FA] | %27
 [Fd]4 [Ad]>[Ac] | B3 e d>B | [FA]4 [Fd]>[Ge] | [Af]3 [Ge] [Fd]>[GB] | [FA]4 [DF]>[Fd] | %32
 c4- [Gc]2 |[M:6/4] .[Fd]6 z6 |] %34
V:2
 z2 z2 [D,A,]>[D,A,] | [D,D]3 [D,A,] [D,A,]>[D,A,] | [D,D]4 [F,D]>[F,D] | %3
 [G,DG]3 [G,CG] [G,EG]>[G,DG] | [D,D]4 [D,A,]>[D,A,] | [D,D]3 [D,A,] [D,A,]>[D,A,] | %6
 [E,=G,E]4 [E,A,E]>[E,B,E] | [A,CE]6 | [A,CE]4 [F,A,D]>[E,A,E] | [D,D]3 [D,D] [D,D]>[D,D] | %10
 [D,A,]4 [F,D]>[F,D] | [G,DG]3 [G,B,G] [G,B,G]>[G,G] | [D,D]4 [D,A,]>[D,A,] | %13
 [D,D]3 [D,A,] [D,A,]>[D,D] | [D,D]4 [D,A,]>[D,A,] | [A,,A,]6 |[M:2/4] [D,A,]4 |[M:1/4] D,>D, | %18
[M:3/4] A,,4 [A,,A,]>[A,,A,] | [A,,A,]4 [A,,A,]>A,, | D,6 | [D,A,]4 [F,D]>[F,D] | %22
 [G,DG]4 [G,B,G]>[G,B,G] | [E,B,]4 [E,B,]>[E,B,] | [A,CA]6 | [A,CE]4[K:bass] [F,A,D]>[E,A,E] | %26
 [D,D]3 [D,D] [D,D]>[D,D] | [D,A,]4 [F,D]>[F,D] | [G,DG]3 [G,B,G] [G,B,G]>[G,G] | %29
 [D,D]4 [D,A,]>[D,A,] | [D,D]3 [D,A,] [D,A,]>[D,D] | [D,D]4 [D,A,]>[D,A,] | [A,,A,]6 | %33
[M:6/4] .[D,A,]6 z6 |] %34
V:3
 x6 | x6 | x6 | x6 | x6 | x6 | x6 | x6 | z2 z G, F>G | x6 | x6 | x6 | x6 | x6 | x6 | E4 G2 | %16
[M:2/4] x4 |[M:1/4] x2 |[M:3/4] x6 | x6 | x6 | x6 | x6 | x6 | x6 | z2 z G, F>G | x6 | x6 | x6 | %29
 x6 | x6 | x6 | E4 z2 |[M:6/4] x12 |] %34

